icons/code-hex-vertical.svg

<svg xmlns="http://www.w3.org/2000/svg" viewBox="0 0 24 24" fill="currentColor">
  <path d="M9.49989 2.94995c-1.69093 0-3.2088.96112-4.12404 2.33398l-.01277.01915-2.51125 4.31936c-.83586 1.43326-.83551 3.32216.00023 4.75546l2.5 4.3c.83048 1.4236 2.37339 2.3721 4.14783 2.3721h5.00001c1.6909 0 3.2088-.9612 4.124-2.334l.0128-.0192 2.5112-4.3192c.836-1.4335.836-3.3221-.0002-4.75555l-2.4994-4.29906-.0006-.00094c-.8305-1.42369-2.3734-2.3721-4.1478-2.3721H9.49989ZM4.14773 10.3779l2.48849-4.28026c.68538-1.0164 1.76122-1.64769 2.86367-1.64769h5.00001c1.2253 0 2.2826.65186 2.8522 1.6279l2.5 4.30005c.5637.9664.5637 2.2777 0 3.2442l-2.4885 4.2802c-.6854 1.0164-1.7613 1.6477-2.8637 1.6477H9.49989c-1.22531 0-2.28257-.6519-2.85216-1.6279L4.14827 13.623l-.00054-.0009c-.56378-.9665-.56378-2.2778 0-3.2442Zm7.75217-1.11714-1.3696 1.36964c-.2929.2929-.7678.2929-1.06069 0-.29289-.2929-.29289-.76775 0-1.06064l1.39999-1.39999c.2705-.27052.6296-.44467 1.0303-.44467.4007 0 .7598.17415 1.0304.44467l1.4 1.39999c.2929.29289.2929.76774 0 1.06064-.2929.2929-.7678.2929-1.0607 0l-1.3697-1.36964ZM9.56958 13.2697c.29289-.2929.76772-.2929 1.06062 0l1.3697 1.3697 1.3697-1.3697c.2929-.2929.7678-.2929 1.0606 0 .2929.2929.2929.7678 0 1.0607l-1.3999 1.4c-.2706.2705-.6297.4446-1.0304.4446-.4007 0-.7598-.1741-1.0303-.4446l-1.40001-1.4c-.2929-.2929-.2929-.7678-.00001-1.0607Z"/>
</svg>

<svg width="24" height="24" viewBox="0 0 24 24" fill="none" xmlns="http://www.w3.org/2000/svg">
<path fill-rule="evenodd" clip-rule="evenodd" d="M9.49989 2.94995C7.80896 2.94995 6.29109 3.91107 5.37585 5.28393L5.36308 5.30308L2.85183 9.62244C2.01597 11.0557 2.01632 12.9446 2.85206 14.3779L5.35206 18.6779C6.18254 20.1015 7.72545 21.05 9.49989 21.05H14.4999C16.1908 21.05 17.7087 20.0888 18.6239 18.716L18.6367 18.6968L21.1479 14.3776C21.9839 12.9441 21.9839 11.0555 21.1477 9.62205L18.6483 5.32299L18.6477 5.32205C17.8172 3.89836 16.2743 2.94995 14.4999 2.94995H9.49989ZM4.14773 10.3779L6.63622 6.09764C7.3216 5.08124 8.39744 4.44995 9.49989 4.44995H14.4999C15.7252 4.44995 16.7825 5.10181 17.3521 6.07785L19.8521 10.3779C20.4158 11.3443 20.4158 12.6556 19.8521 13.6221L17.3636 17.9023C16.6782 18.9187 15.6023 19.55 14.4999 19.55H9.49989C8.27458 19.55 7.21732 18.8981 6.64773 17.9221L4.14827 13.623L4.14773 13.6221C3.58395 12.6556 3.58395 11.3443 4.14773 10.3779ZM11.8999 9.26076L10.5303 10.6304C10.2374 10.9233 9.7625 10.9233 9.46961 10.6304C9.17672 10.3375 9.17672 9.86265 9.46961 9.56976L10.8696 8.16977C11.1401 7.89925 11.4992 7.7251 11.8999 7.7251C12.3006 7.7251 12.6597 7.89925 12.9303 8.16977L14.3303 9.56976C14.6232 9.86265 14.6232 10.3375 14.3303 10.6304C14.0374 10.9233 13.5625 10.9233 13.2696 10.6304L11.8999 9.26076ZM9.56958 13.2697C9.86247 12.9768 10.3373 12.9768 10.6302 13.2697L11.9999 14.6394L13.3696 13.2697C13.6625 12.9768 14.1374 12.9768 14.4302 13.2697C14.7231 13.5626 14.7231 14.0375 14.4302 14.3304L13.0303 15.7304C12.7597 16.0009 12.4006 16.175 11.9999 16.175C11.5992 16.175 11.2401 16.0009 10.9696 15.7304L9.56959 14.3304C9.27669 14.0375 9.27669 13.5626 9.56958 13.2697Z" fill="black"/>
</svg>
